X:1
T:Modersmaalet
T:Modersmaalet
T:Bind 1, No. 25
T:Henrik Rung, Arr. Joh. D. Behrens
T:N. F. S. Grundtvig
C:H. Rung, Arr. Joh. D. Behrens
Z:N. F. S. Grundtvig
%%score [ 1 2 3 4 ]
L:1/8
Q:1/4=84
M:6/8
K:Bb
V:1 treble-8 nm="T1"
V:2 treble-8 nm="T2"
V:3 bass nm="B1"
V:4 bass nm="B2"
V:1
!mf!"^Moderato" d2 e!<(! d B d!<)! | f2 g!>(! f2 d!>)! | e3/2 f/ e!<(! d2 B!<)! |!>(! d3 c2!>)! z | %4
w: 1.Mo- ders Navn er en|Him- melsk Lyd saa|vi- de som Bøl- gen|blaa- ner,|
w: 2.Mo- ders- maal var de|Kon- gers Sprog, vi|min- des med Fryd og|hæ- der;|
w: 3.Mo- ders- maal er det|Ro- sen- baand, som|Sto- re og Smaa om-|slyn- ger;|
w: 4.Mo- ders- maal er vort|Hjer- te- sprog, kun|løs er al frem- med|Ta- le;|
 d2 e!<(! d B d!<)! | (f>g) f!>(! =e2 d!>)! | c3/2 B/ A!<(! d2!<)! B |!>(! G3 F2!>)! z | %8
w: Mo- ders Røst er den|Spæ- * des Fryd og|glæ- der, naar Is- sen|graa- ner,|
w: Mo- ders Maal var de|Kjæm- * pers og, vi|kal- de med Stolt- hed|Fæ- dre,|
w: i det le- ver kun|Fæ- * dres Aand, og|der- i kun Hjer- tet|gyn- ger,|
w: det a- le- ne i|Mund _ og Bog kan|væk- ke et folk af|Dva- le,|
 (e>f)!<(! e d2!<)! d | g2!>(! g f2!>)! z | (B>c) B!<(! A2 A!<)! |!>(! d2 d!>)! c2 z | %12
w: sødt _ i Lyst og|sødt i Nød,|sødt _ i Liv og|sødt i Død,|
w: ||||
w: ||||
w: ||||
!p!!<(! B3- B3-!<)! | B2 =B c2 e |!>(! (d3 c3)!>)! | B2 z z3 |] %16
w: sødt _|_ i Ef- ter-|mæ- *|let.|
w: ||||
w: ||||
w: ||||
V:2
!mf! B2 B!<(! B F B!<)! | d2 e!>(! d2 B!>)! | c3/2 c/ c!<(! B2 B!<)! |!>(! B3 A2!>)! z | %4
w: 1.Mo- ders Navn er en|Him- melsk Lyd saa|vi- de som Bøl- gen|blaa- ner,|
w: 2.Mo- ders- maal var de|Kon- gers Sprog, vi|min- des med Fryd og|hæ- der;|
w: 3.Mo- ders- maal er det|Ro- sen- baand, som|Sto- re og Smaa om-|slyn- ger;|
w: 4.Mo- ders- maal er vort|Hjer- te- sprog, kun|løs er al frem- med|Ta- le;|
 (BA) G!<(! F F B!<)! | d2 c!>(! B2 A!>)! | G3/2 G/ F!<(! (BF)!<)! G |!>(! =E3 F2!>)! z | %8
w: Mo- * ders Røst er den|Spæ- des Fryd og|glæ- der, naar Is- * sen|graa- ner,|
w: Mo- * ders Maal var de|Kjæm- pers og, vi|kal- de med Stolt- * hed|Fæ- dre,|
w: i _ det le- ver kun|Fæ- dres Aand, og|der- i kun Hjer- * tet|gyn- ger,|
w: det _ a- le- ne i|Mund og Bog kan|væk- ke et folk _ af|Dva- le,|
 (c>d)!<(! c B2!<)! B | e2!>(! e d2!>)! z | (G>A) G!<(! F2 F!<)! |!>(! B2 B!>)! A2 z | %12
w: sødt _ i Lyst og|sødt i Nød,|sødt _ i Liv og|sødt i Død,|
w: ||||
w: ||||
w: ||||
!p!!<(! (B3- B2 A!<)! | G2) G G2 c |!>(! (B3 A3)!>)! | _B2 z z3 |] %16
w: sødt _ _|_ i Ef- ter-|mæ- *|let.|
w: ||||
w: ||||
w: ||||
V:3
!mf! F,2 G,!<(! F, D, F,!<)! | B,2 B,!>(! B,2 F,!>)! | F,3/2 F,/ F,!<(! F,2 F,!<)! | %3
w: 1.Mo- ders Navn er en|Him- melsk Lyd saa|vi- de som Bøl- gen|
w: 2.Mo- ders- maal var de|Kon- gers Sprog, vi|min- des med Fryd og|
w: 3.Mo- ders- maal er det|Ro- sen- baand, som|Sto- re og Smaa om-|
w: 4.Mo- ders- maal er vort|Hjer- te- sprog, kun|løs er al frem- med|
!>(! F,3 F,2!>)! z | F,2 B,!<(! B, F, F,!<)! | B,2 A,!>(! G,2 F,!>)! | %6
w: blaa- ner,|Mo- ders Røst er den|Spæ- des Fryd og|
w: hæ- der;|Mo- ders Maal var de|Kjæm- pers og, vi|
w: slyn- ger;|i det le- ver kun|Fæ- dres Aand, og|
w: Ta- le;|det a- le- ne i|Mund og Bog kan|
 =E,3/2 E,/ F,!<(! (F,D,)!<)! D, |!>(! =E,3 F,2!>)! z | G,2!<(! G, G,2!<)! B, | %9
w: glæ- der, naar Is- * sen|graa- ner,|sødt i Lyst og|
w: kal- de med Stolt- * hed|Fæ- dre,||
w: der- i kun Hjer- * tet|gyn- ger,||
w: væk- ke et folk _ af|Dva- le,||
 B,2!>(! B, B,2!>)! z | G,2 G,!<(! F,2 F,!<)! |!>(! F,2 F,!>)! F,2 z |!p!!<(! (B,3- B,2 A,!<)! | %13
w: sødt i Nød,|sødt i Liv og|sødt i Død,|sødt _ _|
w: ||||
w: ||||
w: ||||
 G,2) F, E,2 G, |!>(! (F,3 E,3)!>)! | _D,2 z z3 |] %16
w: _ i Ef- ter-|mæ- *|let.|
w: |||
w: |||
w: |||
V:4
!mf! B,,2 B,,!<(! B,, B,, B,,!<)! | B,,2 B,,!>(! B,,2 B,,!>)! | A,,3/2 A,,/ A,,!<(! B,,2 D,!<)! | %3
w: 1.Mo- ders Navn er en|Him- melsk Lyd saa|vi- de som Bøl- gen|
w: 2.Mo- ders- maal var de|Kon- gers Sprog, vi|min- des med Fryd og|
w: 3.Mo- ders- maal er det|Ro- sen- baand, som|Sto- re og Smaa om-|
w: 4.Mo- ders- maal er vort|Hjer- te- sprog, kun|løs er al frem- med|
!>(! F,3 F,2!>)! z | B,,2 B,,!<(! B,, D, B,,!<)! | B,2 A,!>(! G,2 F,!>)! | %6
w: blaa- ner,|Mo- ders Røst er den|Spæ- des Fryd og|
w: hæ- der;|Mo- ders Maal var de|Kjæm- pers og, vi|
w: slyn- ger;|i det le- ver kun|Fæ- dres Aand, og|
w: Ta- le;|det a- le- ne i|Mund og Bog kan|
 =E,3/2 E,/ F,!<(! B,,2!<)! B,, |!>(! C,3 F,2!>)! z | C,2!<(! C, G,2!<)! G, | %9
w: glæ- der, naar Is- sen|graa- ner,|sødt i Lyst og|
w: kal- de med Stolt- hed|Fæ- dre,||
w: der- i kun Hjer- tet|gyn- ger,||
w: væk- ke et folk af|Dva- le,||
 E,2!>(! G, B,2!>)! z | G,2 G,!<(! D,2 D,!<)! |!>(! B,,2 D,!>)! F,2 z |!p!!<(! (B,2 A, G,2 F,!<)! | %13
w: sødt i Nød,|sødt i Liv og|sødt i Død,|sødt _ _ _|
w: ||||
w: ||||
w: ||||
 E,2) D, E,2 C, |!>(! (F,3 F,,3)!>)! | B,,2 z z3 |] %16
w: _ i Ef- ter-|mæ- *|let.|
w: |||
w: |||
w: |||

